apps/www/public/images/product/auth/nuxt-icon.svg

<svg width="61" height="40" viewBox="0 0 61 40" fill="none" xmlns="http://www.w3.org/2000/svg">
<path d="M33.9971 39.539H56.5247C57.2402 39.539 57.9432 39.3564 58.5628 39.0093C59.1825 38.6623 59.697 38.1631 60.0546 37.5619C60.4122 36.9608 60.6003 36.2789 60.6 35.5849C60.5997 34.8908 60.411 34.2091 60.0528 33.6083L44.9239 8.1904C44.5663 7.5894 44.0519 7.09032 43.4324 6.74332C42.8129 6.39632 42.1101 6.21363 41.3947 6.21363C40.6793 6.21363 39.9766 6.39632 39.357 6.74332C38.7375 7.09032 38.2231 7.5894 37.8655 8.1904L33.9971 14.6939L26.4338 1.97648C26.0759 1.37553 25.5613 0.876518 24.9416 0.52958C24.3219 0.182643 23.619 0 22.9035 0C22.188 0 21.4851 0.182643 20.8654 0.52958C20.2457 0.876518 19.7311 1.37553 19.3732 1.97648L0.547184 33.6083C0.189033 34.2091 0.00031171 34.8908 3.85805e-07 35.5849C-0.000310938 36.2789 0.187799 36.9608 0.54541 37.5619C0.903021 38.1631 1.41752 38.6623 2.03717 39.0093C2.65681 39.3564 3.35975 39.539 4.07528 39.539H18.2162C23.819 39.539 27.9509 37.1518 30.794 32.4945L37.6965 20.8993L41.3936 14.6939L52.4895 33.3335H37.6965L33.9971 39.539ZM17.9857 33.3272L8.11711 33.325L22.9101 8.47362L30.2912 20.8993L25.3492 29.2044C23.4611 32.2262 21.3162 33.3272 17.9857 33.3272Z" fill="#00DC82"/>
</svg>

<svg xmlns="http://www.w3.org/2000/svg" width="61" height="40" fill="none" viewBox="0 0 61 40"><path fill="#00dc82" d="M33.997 39.539h22.528c.715 0 1.418-.183 2.038-.53a4 4 0 0 0 1.492-1.447 3.86 3.86 0 0 0 .545-1.977 3.86 3.86 0 0 0-.547-1.977L44.923 8.19a4 4 0 0 0-1.49-1.447 4.2 4.2 0 0 0-2.038-.53c-.716 0-1.418.183-2.038.53a4 4 0 0 0-1.492 1.447l-3.868 6.504-7.563-12.718A4 4 0 0 0 24.942.53 4.2 4.2 0 0 0 22.904 0c-.716 0-1.419.183-2.039.53a4 4 0 0 0-1.492 1.446L.547 33.608A3.86 3.86 0 0 0 0 35.585c0 .694.188 1.376.545 1.977s.873 1.1 1.492 1.447c.62.347 1.323.53 2.038.53h14.141c5.603 0 9.735-2.387 12.578-7.044l6.903-11.596 3.697-6.205 11.096 18.64H37.695zm-16.011-6.212-9.869-.002L22.91 8.474l7.381 12.425-4.942 8.305c-1.888 3.022-4.033 4.123-7.363 4.123"/></svg>
